X:1
T:The Farmyard
N:Identified as 'London Folk Song' 
N:From 'Less Known Folk Songs', Novello
B:Singing Together, Autumn 1966
Z:Cecil Sharp
M:2/2     %Meter
L:1/8     %
K:G
G2 G2 G2 GA |B2 c2 A2 Bc |d2 d2 c2 A2 |G4 G2 z2 |
w:Up was I on my fa-ther's farm On a May-day morn-ing ear-ly 
G2 G2 G2 A2 |B2 c2 A2 Bc |d2 d2 c2 A2 |G4 G2 
w:Feed-ing of my fa-ther's cows On a May-day morn-ing ear-ly. 
BA |G2 G2 G2 AB |A2 F2 D4 |cc c2 BB B2 |GABc d4 |
w:With a moo, moo here And a moo, moo there, Here a moo, there a moo, here a pret-ty moo; 
G2 GG G2 BB |AGFE D2 Bc |dd d2 c2 AA |G4 G2 z2 |]
w:Six pret-ty maids come and gang a-long o' me To the mer-ry green fields and the farm-yard 
